X:93
T:score180
L:1/8
Q:1/4=96
M:4/4
I:linebreak $
K:D
 (fed | BAFA d3 B | A4-) A(fed |$ BAFA d3 B | A4) (a2 gf | f2 e2) (g2 fe |$ e2 d2) z (fed | %7
 AFDF B3 A | A4) z4 |] %9
